X: 13208
T: Fisher Lads
R: hornpipe
M: 4/4
K: Gmajor
cd|e^dec agaf|e^dec agaf|e^dfe e=ddc|cBdc B2cd|
e^dec agaf|e^dec agaf|ecfd cABG|A/B/c/d/ e>c A2:|
|:ED|CEAc Eace|Acea ceac’|e^dfe e=ddc|cB/c/ d>c B2ED|
CEAc Eace|Acea ceac’|ecfd cABG|A/B/c/d/ e>c A2:|
Bc|d^cdB gfge|d^cdB gfge|d^ced d=ccB|BAcB A2Bc|
d^cdB gfge|d^cdB gfge|dBec BGAF|G/A/B/c/ d>B G2:|
|:DC|B,DGB DGBd|GBdg Bdgb|d^ced d=ccd|BA/B/ c>B A2DC|
B,DGB DGBd|GBdg Bdgb|dBec BGAF|G/A/B/c/ d>B G2:|

